Catalina-light/actions/22/edit-clear-locationbar-rtl.svg

<svg xmlns="http://www.w3.org/2000/svg" viewBox="0 0 22 22">
  <defs id="defs3051">
    <style type="text/css" id="current-color-scheme">
      .ColorScheme-Text {
        color:#4d4d4d
      }
      </style>
  </defs>
    <path
       style="fill:currentColor;fill-opacity:1;stroke:none"
       class="ColorScheme-Text"
       d="M 14.33398,4.5 20.21484,10.23438 21,11 20.21484,11.76563 14.33398,17.5 4.05469,17.5 2.5,17.5 2,17.5 1.5,17.5 C 1.223,17.5 1,17.277 1,17 L 1,5 C 1,4.723 1.223,4.5 1.5,4.5 l 1,0 1.55469,0 10.27929,0 z M 11.56641,7.75 9.33398,9.92773 7.09961,7.75 6,8.82227 8.23242,11 6,13.17773 7.09961,14.25 9.33398,12.07227 11.56641,14.25 12.66602,13.17773 10.43359,11 12.66602,8.82227 11.56641,7.75 Z"
        />
</svg>

<svg viewBox="0 0 22 22" xmlns="http://www.w3.org/2000/svg">
<defs>
<style id="current-color-scheme" type="text/css">.ColorScheme-Text {
        color:#4d4d4d
      }</style>
</defs>
<path class="ColorScheme-Text" d="m14.334 4.5 5.8809 5.7344 0.78516 0.76562-0.78516 0.76563-5.8809 5.7344h-12.834c-0.277 0-0.5-0.223-0.5-0.5v-12c0-0.277 0.223-0.5 0.5-0.5h12.834zm-2.7676 3.25-2.2324 2.1777-2.2344-2.1777-1.0996 1.0723 2.2324 2.1777-2.2324 2.1777 1.0996 1.0723 2.2344-2.1777 2.2324 2.1777 1.0996-1.0723-2.2324-2.1777 2.2324-2.1777-1.0996-1.0723z" fill="currentColor"/>
</svg>
